source/img/4.svg

<svg width="121" height="227" viewBox="0 0 121 227" fill="none" xmlns="http://www.w3.org/2000/svg">
<path d="M66.3242 227V166.24H0.52422V134.88L59.6042 0.199983H94.8842V139.64H120.364V166.24H94.8842V227H66.3242ZM29.3642 139.64H66.3242V36.6L29.3642 139.64Z" fill="#F2F2F2"/>
</svg>

<svg width="121" height="227" fill="none" xmlns="http://www.w3.org/2000/svg"><path d="M66.324 227v-60.76H.524v-31.36L59.604.2h35.28v139.44h25.48v26.6h-25.48V227h-28.56Zm-36.96-87.36h36.96V36.6l-36.96 103.04Z" fill="#F2F2F2"/></svg>
